X:1
T:Title
%%score { ( 1 3 ) | ( 2 4 ) }
L:1/8
Q:1/4=100
M:4/4
K:F
V:1 treble nm="Grand Piano"
V:3 treble 
V:2 bass 
V:4 bass 
V:1
 [DB]>[DA] [DB]>[Dc] [Fd]2 [DA]2 | [^CG]4 [DF]4 | F>G F2 f>g f2 | [DF]>[DG] [DF]2 f>g f2 | %4
w: J.~Lincoln~Hall * * * * *||||
 [DB]>[DA] [DB]>[Dc] [Fd]2 [DB]2 | [^CG]4 [DF]4 | [EG]>[EA] [EG]>[Ec] [Ed]2 [Ec]2 | [A,F]6 z2 | %8
w: ||||
 d4 d4 | [Fd]6[K:bass] z2 | d4 d4 | [A_e]6[K:bass] z2 | c2 z2 _e4 | d4 d4 | e4 e4 | %15
w: |||||||
[M:6/4] [Af]3 [Be]3 [c_e]6 |[M:4/4] d4 d4 | [Fd]6[K:bass] z2 | d4 d4 | [G_e]6 z2 | _e4 g4 | d4 f4 | %22
w: |||||||
 [Ge]4 [A_e]4 | [Bd]6 z2 |] %24
w: ||
V:2
 [B,,F,]>[B,,F,] [B,,F,]>[B,,F,] [B,,F,]2 [B,,F,]2 | [B,,E,]4 [B,,F,]4 | %2
 [F,A,_E]>[F,A,E] [F,A,E]2[K:treble] _e4 | [B,,B,]>[B,,B,] [B,,B,]2[K:treble] d4 | %4
 [B,,F,]>[B,,F,] [B,,F,]>[B,,F,] [B,,F,]2 [B,,F,]2 | [B,,E,]4 [B,,F,]4 | %6
 [C,B,]>[C,B,] [C,B,]>[C,B,] [C,B,]2 [C,B,]2 | F,6 z2 | B,,2 [D,F,]2 [D,F,B,]2 [D,F,]2 | %9
 B,,2 D,2 D,2 D,2 | B,,2 [D,F,]2 [D,F,B,]2 [D,F,]2 | F,,2 C,2 C,2 C,2 | %12
 F,,2 [C,F,A,]2 [C,F,A,]2 [C,F,A,]2 | z z/ A/ [D,F,]2 z z/ E/ D,2 | C,2 [E,G,]2 [E,G,C]2 [E,G,]2 | %15
[M:6/4] [F,,F,]3 [G,,G,]3 [A,,A,]6 |[M:4/4] B,,2 [D,F,]2 [D,F,B,]2 [D,F,]2 | B,,2 D,2 D,2 D,2 | %18
 B,,2 [D,F,]2 [D,F,B,]2 [D,F,]2 | _E,,2 _E,2 E,2 E,2 | z z/ ^F/ _E,2 [E,G,B,]2 [E,G,B,]2 | %21
 z z/ _E/ D,2 [D,F,B,]2 [D,F,B,]2 | [C,C]4 [F,C]4 | [B,,B,]6 z2 |] %24
V:3
 x8 | x8 | x8 | x8 | x8 | x8 | x8 | x8 | F2 [B,B]2 A2 [B,G]2 | z2[K:bass] [F,B,]2 [F,B,]2 [F,B,]2 | %10
 F2 [B,B]2 A2 [B,G]2 | z2[K:bass] [F,A,]2 [F,A,]2 [F,A,]2 | _e->[=Be-] [ce]2 A>_A =A2 | %13
 B2 [B,B]2 F2 [F,B,F]2 | G2 [CA]2 B2 [CG]2 |[M:6/4] x12 |[M:4/4] F2 [B,B]2 A2 [B,G]2 | %17
 z2[K:bass] [F,B,]2 [F,B,]2 [F,B,]2 | F2 [B,B]2 A2 [B,_A]2 | z2 [G,B,]2 [G,B,]2 [G,B,]2 | %20
 G2 [G,B,G]2 _e'>d' e'2 | F2 [F,B,F]2 d'>^c' d'2 | x8 | x8 |] %24
V:4
 x8 | x8 | x4[K:treble] x4 | x4[K:treble] x4 | x8 | x8 | x8 | x8 | x8 | x8 | x8 | x8 | x8 | %13
 B,,2 z2 [D,F,B,]2 z2 | x8 |[M:6/4] x12 |[M:4/4] x8 | x8 | x8 | x8 | _E,,2 z2 z4 | B,,2 z2 z4 | %22
 x8 | x8 |] %24

